src/images/svg/audio-book.svg

<svg width="58" height="48" viewBox="0 0 58 48" fill="none" xmlns="http://www.w3.org/2000/svg">
<path d="M4.57139 44.1788H22.9163C23.846 46.1068 25.7913 47.3524 27.9866 47.3524H29.1451C31.3426 47.3524 33.2868 46.1074 34.2165 44.1788H52.5714C54.462 44.1788 56 42.6409 56 40.7503V7.89311C56 6.00249 54.462 4.46454 52.5714 4.46454H50.7198V2.9333C50.7198 1.67269 49.6942 0.647583 48.4341 0.647583H8.69751C7.43746 0.647583 6.41179 1.67269 6.41179 2.9333V4.46454H4.57139C2.68077 4.46454 1.14282 6.00249 1.14282 7.89311V40.7503C1.14282 42.6409 2.68077 44.1788 4.57139 44.1788ZM48.4319 37.1275H29.7143V10.5698C34.0406 11.1357 37.3951 14.8373 37.3951 19.3156V20.3463L37.1239 20.2865C36.8292 20.2235 36.5201 20.2765 36.2634 20.4394C36.0078 20.603 35.827 20.8608 35.7622 21.1571L33.943 29.4361C33.808 30.0516 34.1975 30.6604 34.8136 30.796L38.7455 31.6627C38.9486 31.7056 39.1551 31.7279 39.3616 31.7279C40.7444 31.7279 41.9218 30.7821 42.2232 29.4255L43.2756 24.6375C43.6227 23.0656 42.6261 21.5019 41.0491 21.1515L39.6808 20.85V19.3156C39.6808 13.5745 35.305 8.83692 29.7143 8.26019V2.9333H48.4341L48.4319 37.1275ZM37.7488 22.7648L40.5558 23.3831C40.9062 23.4612 41.1205 23.7949 41.0435 24.1454L39.991 28.9322C39.9151 29.2782 39.5323 29.493 39.2299 29.4288L36.4196 28.8094L37.7488 22.7648ZM8.69751 2.9333H27.4285V8.2585C21.8323 8.82993 17.4509 13.5706 17.4509 19.3156V20.8493L16.0803 21.1521C15.3169 21.3217 14.6651 21.7765 14.2466 22.4327C13.8259 23.0907 13.6875 23.8742 13.8571 24.6353L14.9073 29.4177C15.1919 30.7564 16.3962 31.7279 17.7712 31.7279C17.9777 31.7279 18.1841 31.7056 18.3951 31.661L22.3102 30.796C22.9252 30.6599 23.3147 30.0516 23.1797 29.4361L21.3605 21.1571C21.2957 20.8608 21.1149 20.6024 20.8593 20.4394C20.6026 20.2765 20.2924 20.2229 19.9977 20.2865L19.7366 20.3442V19.3156C19.7366 14.8335 23.0967 11.129 27.4285 10.5681V37.1275H8.69751V5.6074V2.9333ZM19.3739 22.7659L20.7042 28.81L17.9096 29.4272C17.5658 29.5047 17.2154 29.2776 17.1417 28.9355L16.0892 24.142C16.0513 23.9757 16.0814 23.8055 16.1718 23.6638C16.2634 23.5203 16.4073 23.421 16.5736 23.3836L19.3739 22.7659ZM3.42854 7.89311C3.42854 7.26309 3.94081 6.75026 4.57139 6.75026H6.41179V37.1275C6.41179 38.3881 7.43746 39.4132 8.69751 39.4132H48.4341C49.6942 39.4132 50.7198 38.3881 50.7198 37.1275V6.75026H52.5714C53.202 6.75026 53.7143 7.26309 53.7143 7.89311V40.7503C53.7143 41.3803 53.202 41.8931 52.5714 41.8931H33.4397C32.9375 41.8931 32.4944 42.2207 32.3471 42.7006C31.9129 44.1158 30.6261 45.0667 29.1451 45.0667H27.9866C26.5111 45.0667 25.2254 44.1197 24.7801 42.6872C24.6283 42.214 24.1886 41.8931 23.6919 41.8931H4.57139C3.94081 41.8931 3.42854 41.3803 3.42854 40.7503V7.89311Z" fill="#FF6B09"/>
</svg>

<svg xmlns="http://www.w3.org/2000/svg" fill="none" viewBox="0 0 58 48"><path fill="#FF6B09" d="M4.571 44.179h18.345a5.605 5.605 0 0 0 5.07 3.173h1.16a5.603 5.603 0 0 0 5.07-3.173h18.355A3.432 3.432 0 0 0 56 40.75V7.893a3.432 3.432 0 0 0-3.429-3.428H50.72V2.933A2.288 2.288 0 0 0 48.434.648H8.698a2.288 2.288 0 0 0-2.286 2.285v1.532h-1.84a3.432 3.432 0 0 0-3.43 3.428V40.75a3.432 3.432 0 0 0 3.43 3.429zm43.86-7.052H29.715V10.57c4.327.566 7.681 4.267 7.681 8.746v1.03l-.271-.06a1.143 1.143 0 0 0-1.362.87l-1.819 8.28a1.142 1.142 0 0 0 .87 1.36l3.932.867c.204.043.41.065.617.065 1.382 0 2.56-.946 2.861-2.303l1.053-4.788a2.93 2.93 0 0 0-2.227-3.486l-1.368-.301v-1.534c0-5.741-4.376-10.48-9.967-11.056V2.933h18.72l-.002 34.194zM37.75 22.765l2.807.618c.35.078.565.412.488.762l-1.053 4.787c-.076.346-.459.561-.761.497l-2.81-.62 1.329-6.044zM8.698 2.933h18.73v5.325c-5.596.572-9.977 5.313-9.977 11.058v1.533l-1.37.303a2.908 2.908 0 0 0-1.834 1.28 2.895 2.895 0 0 0-.39 2.203l1.05 4.783a2.938 2.938 0 0 0 3.488 2.243l3.915-.865a1.143 1.143 0 0 0 .87-1.36l-1.82-8.279a1.141 1.141 0 0 0-1.362-.87l-.261.057v-1.028c0-4.482 3.36-8.187 7.692-8.748v26.56H8.697V2.932zm10.676 19.833l1.33 6.044-2.794.617a.649.649 0 0 1-.768-.491l-1.053-4.794a.625.625 0 0 1 .083-.478.64.64 0 0 1 .402-.28l2.8-.618zM3.429 7.893c0-.63.512-1.143 1.142-1.143h1.84v30.377a2.288 2.288 0 0 0 2.287 2.286h39.736a2.288 2.288 0 0 0 2.286-2.285V6.75h1.851c.631 0 1.143.513 1.143 1.143V40.75c0 .63-.512 1.143-1.143 1.143H33.44c-.502 0-.946.328-1.093.808a3.332 3.332 0 0 1-3.202 2.366h-1.158a3.343 3.343 0 0 1-3.207-2.38 1.143 1.143 0 0 0-1.088-.794H4.572c-.631 0-1.143-.513-1.143-1.143V7.893z"/></svg>
